modules/coreui-icons-free/icons/short-text.svg

<!-- Generated by IcoMoon.io -->
<svg version="1.1" xmlns="http://www.w3.org/2000/svg" width="24" height="24" viewBox="0 0 24 24">
<title>short-text</title>
<path d="M6 9h12v1.5h-12v-1.5z"></path>
<path d="M6 14.25h6v1.5h-6v-1.5z"></path>
<path d="M2.25 4.125v16.125h19.5v-16.125zM20.25 18.75h-16.5v-13.125h16.5z"></path>
</svg>

<svg xmlns="http://www.w3.org/2000/svg" width="24" height="24" viewBox="0 0 24 24"><path d="M6 9h12v1.5H6V9zM6 14.25h6v1.5H6v-1.5z"/><path d="M2.25 4.125V20.25h19.5V4.125zm18 14.625H3.75V5.625h16.5z"/></svg>
